assets/skin-mi-wbc/images/picinpic2X.svg

<?xml version="1.0" encoding="utf-8"?>
<!-- Generator: Adobe Illustrator 21.0.1, SVG Export Plug-In . SVG Version: 6.00 Build 0)  -->
<svg version="1.1" id="Layer_1" xmlns="http://www.w3.org/2000/svg" xmlns:xlink="http://www.w3.org/1999/xlink" x="0px" y="0px"
	 viewBox="0 0 32 32" style="enable-background:new 0 0 32 32;" xml:space="preserve">
<style type="text/css">
	.st0{opacity:0.302;}
	.st1{fill-rule:evenodd;clip-rule:evenodd;fill:#1FABE2;}
</style>
<g>
	<g id="Rectangle_515_2_" class="st0">
		<g>
			<rect x="5" y="8.3" class="st1" width="19.8" height="12.1"/>
		</g>
	</g>
	<g id="Rectangle_512_12_">
		<g>
			<path class="st1" d="M5,8.3h19.8v5.5H27V8.3c0-1.2-1-2.2-2.2-2.2H5c-1.2,0-2.2,1-2.2,2.2v12.1c0,1.2,1,2.2,2.2,2.2h7.7v-2.2H5
				V8.3z M14.9,16v9.9h14.3V16H14.9z"/>
		</g>
	</g>
	<g id="Rectangle_513_12_">
		<g>
			<polygon class="st1" points="10.5,10.5 10.5,13.8 7.2,13.8 7.2,16 10.5,16 12.7,16 12.7,13.8 12.7,10.5 			"/>
		</g>
	</g>
</g>
</svg>

<?xml version="1.0" encoding="UTF-8" standalone="no"?>
<!DOCTYPE svg PUBLIC "-//W3C//DTD SVG 1.1//EN" "http://www.w3.org/Graphics/SVG/1.1/DTD/svg11.dtd">
<svg width="100%" height="100%" viewBox="0 0 32 32" version="1.1" xmlns="http://www.w3.org/2000/svg" xmlns:xlink="http://www.w3.org/1999/xlink" xml:space="preserve" xmlns:serif="http://www.serif.com/" style="fill-rule:evenodd;clip-rule:evenodd;stroke-linejoin:round;stroke-miterlimit:1.41421;">
    <g>
        <rect id="Rectangle_515_2_" x="5" y="8.3" width="19.8" height="12.1" style="fill:none;"/>
        <path id="Rectangle_512_12_" d="M5,8.3L24.8,8.3L24.8,13.8L27,13.8L27,8.3C27,7.1 26,6.1 24.8,6.1L5,6.1C3.8,6.1 2.8,7.1 2.8,8.3L2.8,20.4C2.8,21.6 3.8,22.6 5,22.6L12.7,22.6L12.7,20.4L5,20.4L5,8.3ZM14.9,16L14.9,25.9L29.2,25.9L29.2,16L14.9,16Z" style="fill:rgb(204,204,204);stroke:black;stroke-opacity:0.541176;stroke-width:0.5px;"/>
        <path id="Rectangle_513_12_" d="M10.5,10.5L10.5,13.8L7.2,13.8L7.2,16L12.7,16L12.7,13.8L12.7,10.5L10.5,10.5Z" style="fill:rgb(204,204,204);stroke:black;stroke-opacity:0.541176;stroke-width:0.5px;"/>
    </g>
</svg>
